images/rsr.svg

<svg height="250" viewBox="0 0 250 250" width="250" xmlns="http://www.w3.org/2000/svg"><path d="m250 125c0 69.035156-55.964844 125-125 125s-125-55.964844-125-125 55.964844-125 125-125 125 55.964844 125 125zm0 0"/><path d="m157.988281 139.992188c0 2.753906.09375 2.851562 2.777344 2.851562 6.390625.007812 12.777344.066406 19.164063-.035156 1.953124-.03125 2.726562.519531 2.679687 2.574218-.117187 4.925782-.105469 9.859376-.007813 14.785157.039063 1.898437-.625 2.589843-2.523437 2.566406-6.527344-.070313-13.054687.023437-19.578125-.058594-1.8125-.023437-2.433594.558594-2.40625 2.390625.121094 7.910156.132812 15.824219.167969 23.734375.011719 2.710938-.15625 2.863281-2.792969 2.863281-4.929688.007813-9.859375.007813-14.785156 0-2.8125 0-2.835938-.011718-2.835938-2.742187.015625-7.917969-.011718-15.828125.105469-23.742187.03125-1.941407-.59375-2.53125-2.5-2.503907-6.871094.085938-13.75.105469-20.617187-.007812-2.117188-.035157-2.597657.832031-2.570313 2.71875.109375 7.910156.054687 15.824219.207031 23.734375.039063 2.078125-.683594 2.628906-2.652344 2.585937-4.929687-.113281-9.859374-.039062-14.789062-.039062-2.941406 0-2.953125 0-2.945312-2.859375.015624-7.917969 0-15.828125.101562-23.742188.023438-1.855468-.632812-2.40625-2.417969-2.382812-6.523437.070312-13.050781.035156-19.578125.023437-2.644531 0-2.699218-.066406-2.691406-2.683593.015625-4.929688.09375-9.859376.042969-14.785157-.019531-1.800781.644531-2.441406 2.453125-2.417969 6.523437.074219 13.050781-.019531 19.578125.058594 1.859375.023438 2.570312-.511718 2.546875-2.480468-.113282-8.816407-.136719-17.632813-.074219-26.449219.011719-1.925781-.636719-2.546875-2.535156-2.519531-6.386719.082031-12.773438.039062-19.160157.027343-2.542968 0-2.777343-.234375-2.78125-2.679687-.007812-4.929688.046876-9.859375-.03125-14.789063-.027343-1.808593.644532-2.4375 2.449219-2.414062 6.523438.074219 13.050781-.035157 19.574219.0625 2.03125.03125 2.652344-.683594 2.621094-2.671875-.128906-8.117188-.113282-16.242188-.179688-24.363282-.007812-1.375.488282-2.046874 1.945313-2.039062 5.414062.035156 10.828125.035156 16.242187 0 1.46875-.007812 1.917969.648438 1.910156 2.035156-.015624 6.941406.023438 13.882813.054688 20.824219.003906 1.039063.042969 2.082031.109375 3.117187.191406 3.0625.199219 3.0625 3.183594 3.066407h19.785156c2.542969 0 2.683594-.144531 2.675781-2.75-.015625-7.917969.023438-15.828125-.109375-23.742188-.035156-2.0625.679688-2.617187 2.640625-2.574219 5.066406.109376 10.132813.109376 15.203125 0 1.941407-.039062 2.515625.683594 2.507813 2.554688-.027344 7.910156.0625 15.824219.109375 23.734375.015625 2.695313.082031 2.769531 2.851562 2.769531 6.25 0 12.5.058594 18.746094-.03125 1.914063-.027344 2.738281.449219 2.683594 2.558594-.121094 4.785156.007812 9.578125.023437 14.367188.007813 2.851562-.097656 2.964843-2.886718 2.96875-6.453126.007812-12.914063.058593-19.367188-.03125-1.925781-.027344-2.554688.621093-2.5 2.535156.113281 4.4375.171875 21.792968.175781 26.027344zm-45.304687.328124c-.035156 1.863282.597656 2.582032 2.53125 2.558594 6.796875-.085937 13.597656-.085937 20.394531 0 1.894531.027344 2.574219-.570312 2.546875-2.5-.121094-8.875-.167969-17.753906-.144531-26.628906 0-1.714844-.597657-2.328125-2.308594-2.3125-6.9375.0625-13.875.078125-20.808594-.007812-1.886719-.023438-2.386719.726562-2.351562 2.472656.082031 4.363281.222656 21.976562.140625 26.417968zm0 0" fill="#fff"/></svg>

<svg xmlns="http://www.w3.org/2000/svg" xmlns:xlink="http://www.w3.org/1999/xlink" width="250px" height="250px" viewBox="0 0 250 250" version="1.1">
<g id="surface1">
<path style=" stroke:none;fill-rule:nonzero;fill:rgb(0%,0%,0%);fill-opacity:1;" d="M 250 125 C 250 194.035156 194.035156 250 125 250 C 55.964844 250 0 194.035156 0 125 C 0 55.964844 55.964844 0 125 0 C 194.035156 0 250 55.964844 250 125 Z M 250 125 "/>
<path style=" stroke:none;fill-rule:nonzero;fill:rgb(100%,100%,100%);fill-opacity:1;" d="M 157.988281 139.992188 C 157.988281 142.746094 158.082031 142.84375 160.765625 142.84375 C 167.15625 142.851562 173.542969 142.910156 179.929688 142.808594 C 181.882812 142.777344 182.65625 143.328125 182.609375 145.382812 C 182.492188 150.308594 182.503906 155.242188 182.601562 160.167969 C 182.640625 162.066406 181.976562 162.757812 180.078125 162.734375 C 173.550781 162.664062 167.023438 162.757812 160.5 162.675781 C 158.6875 162.652344 158.066406 163.234375 158.09375 165.066406 C 158.214844 172.976562 158.226562 180.890625 158.261719 188.800781 C 158.273438 191.511719 158.105469 191.664062 155.46875 191.664062 C 150.539062 191.671875 145.609375 191.671875 140.683594 191.664062 C 137.871094 191.664062 137.847656 191.652344 137.847656 188.921875 C 137.863281 181.003906 137.835938 173.09375 137.953125 165.179688 C 137.984375 163.238281 137.359375 162.648438 135.453125 162.675781 C 128.582031 162.761719 121.703125 162.78125 114.835938 162.667969 C 112.71875 162.632812 112.238281 163.5 112.265625 165.386719 C 112.375 173.296875 112.320312 181.210938 112.472656 189.121094 C 112.511719 191.199219 111.789062 191.75 109.820312 191.707031 C 104.890625 191.59375 99.960938 191.667969 95.03125 191.667969 C 92.089844 191.667969 92.078125 191.667969 92.085938 188.808594 C 92.101562 180.890625 92.085938 172.980469 92.1875 165.066406 C 92.210938 163.210938 91.554688 162.660156 89.769531 162.683594 C 83.246094 162.753906 76.71875 162.71875 70.191406 162.707031 C 67.546875 162.707031 67.492188 162.640625 67.5 160.023438 C 67.515625 155.09375 67.59375 150.164062 67.542969 145.238281 C 67.523438 143.4375 68.1875 142.796875 69.996094 142.820312 C 76.519531 142.894531 83.046875 142.800781 89.574219 142.878906 C 91.433594 142.902344 92.144531 142.367188 92.121094 140.398438 C 92.007812 131.582031 91.984375 122.765625 92.046875 113.949219 C 92.058594 112.023438 91.410156 111.402344 89.511719 111.429688 C 83.125 111.511719 76.738281 111.46875 70.351562 111.457031 C 67.808594 111.457031 67.574219 111.222656 67.570312 108.777344 C 67.5625 103.847656 67.617188 98.917969 67.539062 93.988281 C 67.511719 92.179688 68.183594 91.550781 69.988281 91.574219 C 76.511719 91.648438 83.039062 91.539062 89.5625 91.636719 C 91.59375 91.667969 92.214844 90.953125 92.183594 88.964844 C 92.054688 80.847656 92.070312 72.722656 92.003906 64.601562 C 91.996094 63.226562 92.492188 62.554688 93.949219 62.5625 C 99.363281 62.597656 104.777344 62.597656 110.191406 62.5625 C 111.660156 62.554688 112.109375 63.210938 112.101562 64.597656 C 112.085938 71.539062 112.125 78.480469 112.15625 85.421875 C 112.160156 86.460938 112.199219 87.503906 112.265625 88.539062 C 112.457031 91.601562 112.464844 91.601562 115.449219 91.605469 C 122.042969 91.605469 128.636719 91.605469 135.234375 91.605469 C 137.777344 91.605469 137.917969 91.460938 137.910156 88.855469 C 137.894531 80.9375 137.933594 73.027344 137.800781 65.113281 C 137.765625 63.050781 138.480469 62.496094 140.441406 62.539062 C 145.507812 62.648438 150.574219 62.648438 155.644531 62.539062 C 157.585938 62.5 158.160156 63.222656 158.152344 65.09375 C 158.125 73.003906 158.214844 80.917969 158.261719 88.828125 C 158.277344 91.523438 158.34375 91.597656 161.113281 91.597656 C 167.363281 91.597656 173.613281 91.65625 179.859375 91.566406 C 181.773438 91.539062 182.597656 92.015625 182.542969 94.125 C 182.421875 98.910156 182.550781 103.703125 182.566406 108.492188 C 182.574219 111.34375 182.46875 111.457031 179.679688 111.460938 C 173.226562 111.46875 166.765625 111.519531 160.3125 111.429688 C 158.386719 111.402344 157.757812 112.050781 157.8125 113.964844 C 157.925781 118.402344 157.984375 135.757812 157.988281 139.992188 Z M 112.683594 140.320312 C 112.648438 142.183594 113.28125 142.902344 115.214844 142.878906 C 122.011719 142.792969 128.8125 142.792969 135.609375 142.878906 C 137.503906 142.90625 138.183594 142.308594 138.15625 140.378906 C 138.035156 131.503906 137.988281 122.625 138.011719 113.75 C 138.011719 112.035156 137.414062 111.421875 135.703125 111.4375 C 128.765625 111.5 121.828125 111.515625 114.894531 111.429688 C 113.007812 111.40625 112.507812 112.15625 112.542969 113.902344 C 112.625 118.265625 112.765625 135.878906 112.683594 140.320312 Z M 112.683594 140.320312 "/>
</g>
</svg>
